Sources/FrostedUI/Resources/Icons.xcassets/peoplePlus20.imageset/people-plus-20.svg

<svg width="20" height="20" viewBox="0 0 20 20" fill="none" xmlns="http://www.w3.org/2000/svg" data-fui-icon="true">
  <path
    d="M14.835 6.25C16.976 6.25 18.8212 7.57533 19.4863 9.46191C19.6603 9.94718 19.75 10.4679 19.75 11C19.75 11.4142 19.4142 11.75 19 11.75C18.5858 11.75 18.25 11.4142 18.25 11C18.25 10.6359 18.1884 10.2865 18.0742 9.96777L18.0732 9.96387L17.9795 9.72852C17.4656 8.57556 16.2609 7.75 14.835 7.75C13.4577 7.75014 12.2834 8.52809 11.7441 9.62598C12.4918 10.1697 13.1339 10.8528 13.6328 11.6357C13.8551 11.9849 13.7523 12.4483 13.4033 12.6709C13.054 12.8935 12.5898 12.7907 12.3672 12.4414C11.2936 10.7567 9.41084 9.66907 7.28809 9.75488C4.20144 9.87918 1.75 12.6266 1.75 15.873C1.75 16.6468 2.36128 17.25 3.09082 17.25H11.6738C12.0879 17.2501 12.4238 17.5859 12.4238 18C12.4238 18.4141 12.0879 18.7499 11.6738 18.75H3.09082C1.50871 18.75 0.250002 17.4509 0.25 15.873C0.25 11.9148 3.2467 8.41616 7.22754 8.25586C8.37611 8.20944 9.46645 8.43496 10.4434 8.87207C11.2548 7.30815 12.9267 6.25014 14.835 6.25ZM16 11.25C16.4142 11.25 16.75 11.5858 16.75 12V14.25H19C19.4142 14.25 19.75 14.5858 19.75 15C19.75 15.4142 19.4142 15.75 19 15.75H16.75V18C16.75 18.4142 16.4142 18.75 16 18.75C15.5858 18.75 15.25 18.4142 15.25 18V15.75H13C12.5858 15.75 12.25 15.4142 12.25 15C12.25 14.5858 12.5858 14.25 13 14.25H15.25V12C15.25 11.5858 15.5858 11.25 16 11.25ZM7.5 1.25C9.29493 1.25 10.75 2.70507 10.75 4.5C10.75 6.29493 9.29493 7.75 7.5 7.75C5.70507 7.75 4.25 6.29493 4.25 4.5C4.25 2.70507 5.70507 1.25 7.5 1.25ZM7.5 2.75C6.5335 2.75 5.75 3.5335 5.75 4.5C5.75 5.4665 6.5335 6.25 7.5 6.25C8.4665 6.25 9.25 5.4665 9.25 4.5C9.25 3.5335 8.4665 2.75 7.5 2.75ZM14.5 1.25C15.7426 1.25 16.75 2.25736 16.75 3.5C16.75 4.74264 15.7426 5.75 14.5 5.75C13.2574 5.75 12.25 4.74264 12.25 3.5C12.25 2.25736 13.2574 1.25 14.5 1.25ZM14.5 2.75C14.0858 2.75 13.75 3.08579 13.75 3.5C13.75 3.91421 14.0858 4.25 14.5 4.25C14.9142 4.25 15.25 3.91421 15.25 3.5C15.25 3.08579 14.9142 2.75 14.5 2.75Z"
    fill="currentColor"
  />
</svg>

<svg xmlns="http://www.w3.org/2000/svg" width="20" height="20" fill="none" data-fui-icon="true" viewBox="0 0 20 20"><path fill="currentColor" d="M14.835 6.25c2.141 0 3.986 1.325 4.651 3.212.174.485.264 1.006.264 1.538a.75.75 0 0 1-1.5 0c0-.364-.062-.713-.176-1.032v-.004l-.095-.235c-.513-1.153-1.718-1.979-3.144-1.979-1.377 0-2.552.778-3.09 1.876a7.4 7.4 0 0 1 1.888 2.01.75.75 0 0 1-1.266.805c-1.073-1.684-2.956-2.772-5.079-2.686-3.087.124-5.538 2.872-5.538 6.118 0 .774.611 1.377 1.34 1.377h8.584a.75.75 0 0 1 0 1.5H3.09c-1.582 0-2.841-1.3-2.841-2.877 0-3.958 2.997-7.457 6.978-7.617a7.14 7.14 0 0 1 3.215.616c.812-1.564 2.484-2.622 4.392-2.622m1.165 5a.75.75 0 0 1 .75.75v2.25H19a.75.75 0 0 1 0 1.5h-2.25V18a.75.75 0 0 1-1.5 0v-2.25H13a.75.75 0 0 1 0-1.5h2.25V12a.75.75 0 0 1 .75-.75m-8.5-10a3.25 3.25 0 1 1 0 6.5 3.25 3.25 0 0 1 0-6.5m0 1.5a1.75 1.75 0 1 0 0 3.5 1.75 1.75 0 0 0 0-3.5m7-1.5a2.25 2.25 0 1 1 0 4.5 2.25 2.25 0 0 1 0-4.5m0 1.5a.75.75 0 1 0 0 1.5.75.75 0 0 0 0-1.5"/></svg>
